img/footer/instagram-icon.svg

<svg width="20" height="20" viewBox="0 0 20 20" fill="none" xmlns="http://www.w3.org/2000/svg">
<path fill-rule="evenodd" clip-rule="evenodd" d="M6.8 2H13.2C15.851 2 18 4.14903 18 6.8V13.2C18 15.851 15.851 18 13.2 18H6.8C4.14903 18 2 15.851 2 13.2V6.8C2 4.14903 4.14903 2 6.8 2ZM6.8 3.6C5.03269 3.6 3.6 5.03269 3.6 6.8V13.2C3.6 14.9673 5.03269 16.4 6.8 16.4H13.2C14.9673 16.4 16.4 14.9673 16.4 13.2V6.8C16.4 5.03269 14.9673 3.6 13.2 3.6H6.8ZM10 14C7.79086 14 6 12.2091 6 10C6 7.79086 7.79086 6 10 6C12.2091 6 14 7.79086 14 10C14 12.2091 12.2091 14 10 14ZM10 12.4C11.3255 12.4 12.4 11.3255 12.4 10C12.4 8.67452 11.3255 7.6 10 7.6C8.67452 7.6 7.6 8.67452 7.6 10C7.6 11.3255 8.67452 12.4 10 12.4ZM14 6.8C13.5582 6.8 13.2 6.44183 13.2 6C13.2 5.55817 13.5582 5.2 14 5.2C14.4418 5.2 14.8 5.55817 14.8 6C14.8 6.44183 14.4418 6.8 14 6.8Z" fill="#75757F"/>
</svg>

<svg xmlns="http://www.w3.org/2000/svg" width="20" height="20" fill="none"><path fill="#75757F" fill-rule="evenodd" d="M6.8 2h6.4A4.8 4.8 0 0 1 18 6.8v6.4a4.8 4.8 0 0 1-4.8 4.8H6.8A4.8 4.8 0 0 1 2 13.2V6.8A4.8 4.8 0 0 1 6.8 2Zm0 1.6a3.2 3.2 0 0 0-3.2 3.2v6.4a3.2 3.2 0 0 0 3.2 3.2h6.4a3.2 3.2 0 0 0 3.2-3.2V6.8a3.2 3.2 0 0 0-3.2-3.2H6.8ZM10 14a4 4 0 1 1 0-8 4 4 0 0 1 0 8Zm0-1.6a2.4 2.4 0 1 0 0-4.8 2.4 2.4 0 0 0 0 4.8Zm4-5.6a.8.8 0 1 1 0-1.6.8.8 0 0 1 0 1.6Z" clip-rule="evenodd"/></svg>
